src/assets/luts/slog3-base.cube
TITLE "S-Log3 Base"
DOMAIN_MIN 0.0 0.0 0.0
DOMAIN_MAX 1.0 1.0 1.0
LUT_3D_SIZE 5
0.092864 0.092864 0.092864
0.445378 0.092864 0.092864
0.520172 0.092864 0.092864
0.564456 0.092864 0.092864
0.596027 0.092864 0.092864
0.092864 0.445378 0.092864
0.445378 0.445378 0.092864
0.520172 0.445378 0.092864
0.564456 0.445378 0.092864
0.596027 0.445378 0.092864
0.092864 0.520172 0.092864
0.445378 0.520172 0.092864
0.520172 0.520172 0.092864
0.564456 0.520172 0.092864
0.596027 0.520172 0.092864
0.092864 0.564456 0.092864
0.445378 0.564456 0.092864
0.520172 0.564456 0.092864
0.564456 0.564456 0.092864
0.596027 0.564456 0.092864
0.092864 0.596027 0.092864
0.445378 0.596027 0.092864
0.520172 0.596027 0.092864
0.564456 0.596027 0.092864
0.596027 0.596027 0.092864
0.092864 0.092864 0.445378
0.445378 0.092864 0.445378
0.520172 0.092864 0.445378
0.564456 0.092864 0.445378
0.596027 0.092864 0.445378
0.092864 0.445378 0.445378
0.445378 0.445378 0.445378
0.520172 0.445378 0.445378
0.564456 0.445378 0.445378
0.596027 0.445378 0.445378
0.092864 0.520172 0.445378
0.445378 0.520172 0.445378
0.520172 0.520172 0.445378
0.564456 0.520172 0.445378
0.596027 0.520172 0.445378
0.092864 0.564456 0.445378
0.445378 0.564456 0.445378
0.520172 0.564456 0.445378
0.564456 0.564456 0.445378
0.596027 0.564456 0.445378
0.092864 0.596027 0.445378
0.445378 0.596027 0.445378
0.520172 0.596027 0.445378
0.564456 0.596027 0.445378
0.596027 0.596027 0.445378
0.092864 0.092864 0.520172
0.445378 0.092864 0.520172
0.520172 0.092864 0.520172
0.564456 0.092864 0.520172
0.596027 0.092864 0.520172
0.092864 0.445378 0.520172
0.445378 0.445378 0.520172
0.520172 0.445378 0.520172
0.564456 0.445378 0.520172
0.596027 0.445378 0.520172
0.092864 0.520172 0.520172
0.445378 0.520172 0.520172
0.520172 0.520172 0.520172
0.564456 0.520172 0.520172
0.596027 0.520172 0.520172
0.092864 0.564456 0.520172
0.445378 0.564456 0.520172
0.520172 0.564456 0.520172
0.564456 0.564456 0.520172
0.596027 0.564456 0.520172
0.092864 0.596027 0.520172
0.445378 0.596027 0.520172
0.520172 0.596027 0.520172
0.564456 0.596027 0.520172
0.596027 0.596027 0.520172
0.092864 0.092864 0.564456
0.445378 0.092864 0.564456
0.520172 0.092864 0.564456
0.564456 0.092864 0.564456
0.596027 0.092864 0.564456
0.092864 0.445378 0.564456
0.445378 0.445378 0.564456
0.520172 0.445378 0.564456
0.564456 0.445378 0.564456
0.596027 0.445378 0.564456
0.092864 0.520172 0.564456
0.445378 0.520172 0.564456
0.520172 0.520172 0.564456
0.564456 0.520172 0.564456
0.596027 0.520172 0.564456
0.092864 0.564456 0.564456
0.445378 0.564456 0.564456
0.520172 0.564456 0.564456
0.564456 0.564456 0.564456
0.596027 0.564456 0.564456
0.092864 0.596027 0.564456
0.445378 0.596027 0.564456
0.520172 0.596027 0.564456
0.564456 0.596027 0.564456
0.596027 0.596027 0.564456
0.092864 0.092864 0.596027
0.445378 0.092864 0.596027
0.520172 0.092864 0.596027
0.564456 0.092864 0.596027
0.596027 0.092864 0.596027
0.092864 0.445378 0.596027
0.445378 0.445378 0.596027
0.520172 0.445378 0.596027
0.564456 0.445378 0.596027
0.596027 0.445378 0.596027
0.092864 0.520172 0.596027
0.445378 0.520172 0.596027
0.520172 0.520172 0.596027
0.564456 0.520172 0.596027
0.596027 0.520172 0.596027
0.092864 0.564456 0.596027
0.445378 0.564456 0.596027
0.520172 0.564456 0.596027
0.564456 0.564456 0.596027
0.596027 0.564456 0.596027
0.092864 0.596027 0.596027
0.445378 0.596027 0.596027
0.520172 0.596027 0.596027
0.564456 0.596027 0.596027
0.596027 0.596027 0.596027
