src/assets/luts/slog3-base.cube
TITLE "S-Log3 Base"
DOMAIN_MIN 0.0 0.0 0.0
DOMAIN_MAX 1.0 1.0 1.0
LUT_3D_SIZE 9
0.092864 0.092864 0.092864
0.372618 0.092864 0.092864
0.445378 0.092864 0.092864
0.488958 0.092864 0.092864
0.520172 0.092864 0.092864
0.544508 0.092864 0.092864
0.564456 0.092864 0.092864
0.581360 0.092864 0.092864
0.596027 0.092864 0.092864
0.092864 0.372618 0.092864
0.372618 0.372618 0.092864
0.445378 0.372618 0.092864
0.488958 0.372618 0.092864
0.520172 0.372618 0.092864
0.544508 0.372618 0.092864
0.564456 0.372618 0.092864
0.581360 0.372618 0.092864
0.596027 0.372618 0.092864
0.092864 0.445378 0.092864
0.372618 0.445378 0.092864
0.445378 0.445378 0.092864
0.488958 0.445378 0.092864
0.520172 0.445378 0.092864
0.544508 0.445378 0.092864
0.564456 0.445378 0.092864
0.581360 0.445378 0.092864
0.596027 0.445378 0.092864
0.092864 0.488958 0.092864
0.372618 0.488958 0.092864
0.445378 0.488958 0.092864
0.488958 0.488958 0.092864
0.520172 0.488958 0.092864
0.544508 0.488958 0.092864
0.564456 0.488958 0.092864
0.581360 0.488958 0.092864
0.596027 0.488958 0.092864
0.092864 0.520172 0.092864
0.372618 0.520172 0.092864
0.445378 0.520172 0.092864
0.488958 0.520172 0.092864
0.520172 0.520172 0.092864
0.544508 0.520172 0.092864
0.564456 0.520172 0.092864
0.581360 0.520172 0.092864
0.596027 0.520172 0.092864
0.092864 0.544508 0.092864
0.372618 0.544508 0.092864
0.445378 0.544508 0.092864
0.488958 0.544508 0.092864
0.520172 0.544508 0.092864
0.544508 0.544508 0.092864
0.564456 0.544508 0.092864
0.581360 0.544508 0.092864
0.596027 0.544508 0.092864
0.092864 0.564456 0.092864
0.372618 0.564456 0.092864
0.445378 0.564456 0.092864
0.488958 0.564456 0.092864
0.520172 0.564456 0.092864
0.544508 0.564456 0.092864
0.564456 0.564456 0.092864
0.581360 0.564456 0.092864
0.596027 0.564456 0.092864
0.092864 0.581360 0.092864
0.372618 0.581360 0.092864
0.445378 0.581360 0.092864
0.488958 0.581360 0.092864
0.520172 0.581360 0.092864
0.544508 0.581360 0.092864
0.564456 0.581360 0.092864
0.581360 0.581360 0.092864
0.596027 0.581360 0.092864
0.092864 0.596027 0.092864
0.372618 0.596027 0.092864
0.445378 0.596027 0.092864
0.488958 0.596027 0.092864
0.520172 0.596027 0.092864
0.544508 0.596027 0.092864
0.564456 0.596027 0.092864
0.581360 0.596027 0.092864
0.596027 0.596027 0.092864
0.092864 0.092864 0.372618
0.372618 0.092864 0.372618
0.445378 0.092864 0.372618
0.488958 0.092864 0.372618
0.520172 0.092864 0.372618
0.544508 0.092864 0.372618
0.564456 0.092864 0.372618
0.581360 0.092864 0.372618
0.596027 0.092864 0.372618
0.092864 0.372618 0.372618
0.372618 0.372618 0.372618
0.445378 0.372618 0.372618
0.488958 0.372618 0.372618
0.520172 0.372618 0.372618
0.544508 0.372618 0.372618
0.564456 0.372618 0.372618
0.581360 0.372618 0.372618
0.596027 0.372618 0.372618
0.092864 0.445378 0.372618
0.372618 0.445378 0.372618
0.445378 0.445378 0.372618
0.488958 0.445378 0.372618
0.520172 0.445378 0.372618
0.544508 0.445378 0.372618
0.564456 0.445378 0.372618
0.581360 0.445378 0.372618
0.596027 0.445378 0.372618
0.092864 0.488958 0.372618
0.372618 0.488958 0.372618
0.445378 0.488958 0.372618
0.488958 0.488958 0.372618
0.520172 0.488958 0.372618
0.544508 0.488958 0.372618
0.564456 0.488958 0.372618
0.581360 0.488958 0.372618
0.596027 0.488958 0.372618
0.092864 0.520172 0.372618
0.372618 0.520172 0.372618
0.445378 0.520172 0.372618
0.488958 0.520172 0.372618
0.520172 0.520172 0.372618
0.544508 0.520172 0.372618
0.564456 0.520172 0.372618
0.581360 0.520172 0.372618
0.596027 0.520172 0.372618
0.092864 0.544508 0.372618
0.372618 0.544508 0.372618
0.445378 0.544508 0.372618
0.488958 0.544508 0.372618
0.520172 0.544508 0.372618
0.544508 0.544508 0.372618
0.564456 0.544508 0.372618
0.581360 0.544508 0.372618
0.596027 0.544508 0.372618
0.092864 0.564456 0.372618
0.372618 0.564456 0.372618
0.445378 0.564456 0.372618
0.488958 0.564456 0.372618
0.520172 0.564456 0.372618
0.544508 0.564456 0.372618
0.564456 0.564456 0.372618
0.581360 0.564456 0.372618
0.596027 0.564456 0.372618
0.092864 0.581360 0.372618
0.372618 0.581360 0.372618
0.445378 0.581360 0.372618
0.488958 0.581360 0.372618
0.520172 0.581360 0.372618
0.544508 0.581360 0.372618
0.564456 0.581360 0.372618
0.581360 0.581360 0.372618
0.596027 0.581360 0.372618
0.092864 0.596027 0.372618
0.372618 0.596027 0.372618
0.445378 0.596027 0.372618
0.488958 0.596027 0.372618
0.520172 0.596027 0.372618
0.544508 0.596027 0.372618
0.564456 0.596027 0.372618
0.581360 0.596027 0.372618
0.596027 0.596027 0.372618
0.092864 0.092864 0.445378
0.372618 0.092864 0.445378
0.445378 0.092864 0.445378
0.488958 0.092864 0.445378
0.520172 0.092864 0.445378
0.544508 0.092864 0.445378
0.564456 0.092864 0.445378
0.581360 0.092864 0.445378
0.596027 0.092864 0.445378
0.092864 0.372618 0.445378
0.372618 0.372618 0.445378
0.445378 0.372618 0.445378
0.488958 0.372618 0.445378
0.520172 0.372618 0.445378
0.544508 0.372618 0.445378
0.564456 0.372618 0.445378
0.581360 0.372618 0.445378
0.596027 0.372618 0.445378
0.092864 0.445378 0.445378
0.372618 0.445378 0.445378
0.445378 0.445378 0.445378
0.488958 0.445378 0.445378
0.520172 0.445378 0.445378
0.544508 0.445378 0.445378
0.564456 0.445378 0.445378
0.581360 0.445378 0.445378
0.596027 0.445378 0.445378
0.092864 0.488958 0.445378
0.372618 0.488958 0.445378
0.445378 0.488958 0.445378
0.488958 0.488958 0.445378
0.520172 0.488958 0.445378
0.544508 0.488958 0.445378
0.564456 0.488958 0.445378
0.581360 0.488958 0.445378
0.596027 0.488958 0.445378
0.092864 0.520172 0.445378
0.372618 0.520172 0.445378
0.445378 0.520172 0.445378
0.488958 0.520172 0.445378
0.520172 0.520172 0.445378
0.544508 0.520172 0.445378
0.564456 0.520172 0.445378
0.581360 0.520172 0.445378
0.596027 0.520172 0.445378
0.092864 0.544508 0.445378
0.372618 0.544508 0.445378
0.445378 0.544508 0.445378
0.488958 0.544508 0.445378
0.520172 0.544508 0.445378
0.544508 0.544508 0.445378
0.564456 0.544508 0.445378
0.581360 0.544508 0.445378
0.596027 0.544508 0.445378
0.092864 0.564456 0.445378
0.372618 0.564456 0.445378
0.445378 0.564456 0.445378
0.488958 0.564456 0.445378
0.520172 0.564456 0.445378
0.544508 0.564456 0.445378
0.564456 0.564456 0.445378
0.581360 0.564456 0.445378
0.596027 0.564456 0.445378
0.092864 0.581360 0.445378
0.372618 0.581360 0.445378
0.445378 0.581360 0.445378
0.488958 0.581360 0.445378
0.520172 0.581360 0.445378
0.544508 0.581360 0.445378
0.564456 0.581360 0.445378
0.581360 0.581360 0.445378
0.596027 0.581360 0.445378
0.092864 0.596027 0.445378
0.372618 0.596027 0.445378
0.445378 0.596027 0.445378
0.488958 0.596027 0.445378
0.520172 0.596027 0.445378
0.544508 0.596027 0.445378
0.564456 0.596027 0.445378
0.581360 0.596027 0.445378
0.596027 0.596027 0.445378
0.092864 0.092864 0.488958
0.372618 0.092864 0.488958
0.445378 0.092864 0.488958
0.488958 0.092864 0.488958
0.520172 0.092864 0.488958
0.544508 0.092864 0.488958
0.564456 0.092864 0.488958
0.581360 0.092864 0.488958
0.596027 0.092864 0.488958
0.092864 0.372618 0.488958
0.372618 0.372618 0.488958
0.445378 0.372618 0.488958
0.488958 0.372618 0.488958
0.520172 0.372618 0.488958
0.544508 0.372618 0.488958
0.564456 0.372618 0.488958
0.581360 0.372618 0.488958
0.596027 0.372618 0.488958
0.092864 0.445378 0.488958
0.372618 0.445378 0.488958
0.445378 0.445378 0.488958
0.488958 0.445378 0.488958
0.520172 0.445378 0.488958
0.544508 0.445378 0.488958
0.564456 0.445378 0.488958
0.581360 0.445378 0.488958
0.596027 0.445378 0.488958
0.092864 0.488958 0.488958
0.372618 0.488958 0.488958
0.445378 0.488958 0.488958
0.488958 0.488958 0.488958
0.520172 0.488958 0.488958
0.544508 0.488958 0.488958
0.564456 0.488958 0.488958
0.581360 0.488958 0.488958
0.596027 0.488958 0.488958
0.092864 0.520172 0.488958
0.372618 0.520172 0.488958
0.445378 0.520172 0.488958
0.488958 0.520172 0.488958
0.520172 0.520172 0.488958
0.544508 0.520172 0.488958
0.564456 0.520172 0.488958
0.581360 0.520172 0.488958
0.596027 0.520172 0.488958
0.092864 0.544508 0.488958
0.372618 0.544508 0.488958
0.445378 0.544508 0.488958
0.488958 0.544508 0.488958
0.520172 0.544508 0.488958
0.544508 0.544508 0.488958
0.564456 0.544508 0.488958
0.581360 0.544508 0.488958
0.596027 0.544508 0.488958
0.092864 0.564456 0.488958
0.372618 0.564456 0.488958
0.445378 0.564456 0.488958
0.488958 0.564456 0.488958
0.520172 0.564456 0.488958
0.544508 0.564456 0.488958
0.564456 0.564456 0.488958
0.581360 0.564456 0.488958
0.596027 0.564456 0.488958
0.092864 0.581360 0.488958
0.372618 0.581360 0.488958
0.445378 0.581360 0.488958
0.488958 0.581360 0.488958
0.520172 0.581360 0.488958
0.544508 0.581360 0.488958
0.564456 0.581360 0.488958
0.581360 0.581360 0.488958
0.596027 0.581360 0.488958
0.092864 0.596027 0.488958
0.372618 0.596027 0.488958
0.445378 0.596027 0.488958
0.488958 0.596027 0.488958
0.520172 0.596027 0.488958
0.544508 0.596027 0.488958
0.564456 0.596027 0.488958
0.581360 0.596027 0.488958
0.596027 0.596027 0.488958
0.092864 0.092864 0.520172
0.372618 0.092864 0.520172
0.445378 0.092864 0.520172
0.488958 0.092864 0.520172
0.520172 0.092864 0.520172
0.544508 0.092864 0.520172
0.564456 0.092864 0.520172
0.581360 0.092864 0.520172
0.596027 0.092864 0.520172
0.092864 0.372618 0.520172
0.372618 0.372618 0.520172
0.445378 0.372618 0.520172
0.488958 0.372618 0.520172
0.520172 0.372618 0.520172
0.544508 0.372618 0.520172
0.564456 0.372618 0.520172
0.581360 0.372618 0.520172
0.596027 0.372618 0.520172
0.092864 0.445378 0.520172
0.372618 0.445378 0.520172
0.445378 0.445378 0.520172
0.488958 0.445378 0.520172
0.520172 0.445378 0.520172
0.544508 0.445378 0.520172
0.564456 0.445378 0.520172
0.581360 0.445378 0.520172
0.596027 0.445378 0.520172
0.092864 0.488958 0.520172
0.372618 0.488958 0.520172
0.445378 0.488958 0.520172
0.488958 0.488958 0.520172
0.520172 0.488958 0.520172
0.544508 0.488958 0.520172
0.564456 0.488958 0.520172
0.581360 0.488958 0.520172
0.596027 0.488958 0.520172
0.092864 0.520172 0.520172
0.372618 0.520172 0.520172
0.445378 0.520172 0.520172
0.488958 0.520172 0.520172
0.520172 0.520172 0.520172
0.544508 0.520172 0.520172
0.564456 0.520172 0.520172
0.581360 0.520172 0.520172
0.596027 0.520172 0.520172
0.092864 0.544508 0.520172
0.372618 0.544508 0.520172
0.445378 0.544508 0.520172
0.488958 0.544508 0.520172
0.520172 0.544508 0.520172
0.544508 0.544508 0.520172
0.564456 0.544508 0.520172
0.581360 0.544508 0.520172
0.596027 0.544508 0.520172
0.092864 0.564456 0.520172
0.372618 0.564456 0.520172
0.445378 0.564456 0.520172
0.488958 0.564456 0.520172
0.520172 0.564456 0.520172
0.544508 0.564456 0.520172
0.564456 0.564456 0.520172
0.581360 0.564456 0.520172
0.596027 0.564456 0.520172
0.092864 0.581360 0.520172
0.372618 0.581360 0.520172
0.445378 0.581360 0.520172
0.488958 0.581360 0.520172
0.520172 0.581360 0.520172
0.544508 0.581360 0.520172
0.564456 0.581360 0.520172
0.581360 0.581360 0.520172
0.596027 0.581360 0.520172
0.092864 0.596027 0.520172
0.372618 0.596027 0.520172
0.445378 0.596027 0.520172
0.488958 0.596027 0.520172
0.520172 0.596027 0.520172
0.544508 0.596027 0.520172
0.564456 0.596027 0.520172
0.581360 0.596027 0.520172
0.596027 0.596027 0.520172
0.092864 0.092864 0.544508
0.372618 0.092864 0.544508
0.445378 0.092864 0.544508
0.488958 0.092864 0.544508
0.520172 0.092864 0.544508
0.544508 0.092864 0.544508
0.564456 0.092864 0.544508
0.581360 0.092864 0.544508
0.596027 0.092864 0.544508
0.092864 0.372618 0.544508
0.372618 0.372618 0.544508
0.445378 0.372618 0.544508
0.488958 0.372618 0.544508
0.520172 0.372618 0.544508
0.544508 0.372618 0.544508
0.564456 0.372618 0.544508
0.581360 0.372618 0.544508
0.596027 0.372618 0.544508
0.092864 0.445378 0.544508
0.372618 0.445378 0.544508
0.445378 0.445378 0.544508
0.488958 0.445378 0.544508
0.520172 0.445378 0.544508
0.544508 0.445378 0.544508
0.564456 0.445378 0.544508
0.581360 0.445378 0.544508
0.596027 0.445378 0.544508
0.092864 0.488958 0.544508
0.372618 0.488958 0.544508
0.445378 0.488958 0.544508
0.488958 0.488958 0.544508
0.520172 0.488958 0.544508
0.544508 0.488958 0.544508
0.564456 0.488958 0.544508
0.581360 0.488958 0.544508
0.596027 0.488958 0.544508
0.092864 0.520172 0.544508
0.372618 0.520172 0.544508
0.445378 0.520172 0.544508
0.488958 0.520172 0.544508
0.520172 0.520172 0.544508
0.544508 0.520172 0.544508
0.564456 0.520172 0.544508
0.581360 0.520172 0.544508
0.596027 0.520172 0.544508
0.092864 0.544508 0.544508
0.372618 0.544508 0.544508
0.445378 0.544508 0.544508
0.488958 0.544508 0.544508
0.520172 0.544508 0.544508
0.544508 0.544508 0.544508
0.564456 0.544508 0.544508
0.581360 0.544508 0.544508
0.596027 0.544508 0.544508
0.092864 0.564456 0.544508
0.372618 0.564456 0.544508
0.445378 0.564456 0.544508
0.488958 0.564456 0.544508
0.520172 0.564456 0.544508
0.544508 0.564456 0.544508
0.564456 0.564456 0.544508
0.581360 0.564456 0.544508
0.596027 0.564456 0.544508
0.092864 0.581360 0.544508
0.372618 0.581360 0.544508
0.445378 0.581360 0.544508
0.488958 0.581360 0.544508
0.520172 0.581360 0.544508
0.544508 0.581360 0.544508
0.564456 0.581360 0.544508
0.581360 0.581360 0.544508
0.596027 0.581360 0.544508
0.092864 0.596027 0.544508
0.372618 0.596027 0.544508
0.445378 0.596027 0.544508
0.488958 0.596027 0.544508
0.520172 0.596027 0.544508
0.544508 0.596027 0.544508
0.564456 0.596027 0.544508
0.581360 0.596027 0.544508
0.596027 0.596027 0.544508
0.092864 0.092864 0.564456
0.372618 0.092864 0.564456
0.445378 0.092864 0.564456
0.488958 0.092864 0.564456
0.520172 0.092864 0.564456
0.544508 0.092864 0.564456
0.564456 0.092864 0.564456
0.581360 0.092864 0.564456
0.596027 0.092864 0.564456
0.092864 0.372618 0.564456
0.372618 0.372618 0.564456
0.445378 0.372618 0.564456
0.488958 0.372618 0.564456
0.520172 0.372618 0.564456
0.544508 0.372618 0.564456
0.564456 0.372618 0.564456
0.581360 0.372618 0.564456
0.596027 0.372618 0.564456
0.092864 0.445378 0.564456
0.372618 0.445378 0.564456
0.445378 0.445378 0.564456
0.488958 0.445378 0.564456
0.520172 0.445378 0.564456
0.544508 0.445378 0.564456
0.564456 0.445378 0.564456
0.581360 0.445378 0.564456
0.596027 0.445378 0.564456
0.092864 0.488958 0.564456
0.372618 0.488958 0.564456
0.445378 0.488958 0.564456
0.488958 0.488958 0.564456
0.520172 0.488958 0.564456
0.544508 0.488958 0.564456
0.564456 0.488958 0.564456
0.581360 0.488958 0.564456
0.596027 0.488958 0.564456
0.092864 0.520172 0.564456
0.372618 0.520172 0.564456
0.445378 0.520172 0.564456
0.488958 0.520172 0.564456
0.520172 0.520172 0.564456
0.544508 0.520172 0.564456
0.564456 0.520172 0.564456
0.581360 0.520172 0.564456
0.596027 0.520172 0.564456
0.092864 0.544508 0.564456
0.372618 0.544508 0.564456
0.445378 0.544508 0.564456
0.488958 0.544508 0.564456
0.520172 0.544508 0.564456
0.544508 0.544508 0.564456
0.564456 0.544508 0.564456
0.581360 0.544508 0.564456
0.596027 0.544508 0.564456
0.092864 0.564456 0.564456
0.372618 0.564456 0.564456
0.445378 0.564456 0.564456
0.488958 0.564456 0.564456
0.520172 0.564456 0.564456
0.544508 0.564456 0.564456
0.564456 0.564456 0.564456
0.581360 0.564456 0.564456
0.596027 0.564456 0.564456
0.092864 0.581360 0.564456
0.372618 0.581360 0.564456
0.445378 0.581360 0.564456
0.488958 0.581360 0.564456
0.520172 0.581360 0.564456
0.544508 0.581360 0.564456
0.564456 0.581360 0.564456
0.581360 0.581360 0.564456
0.596027 0.581360 0.564456
0.092864 0.596027 0.564456
0.372618 0.596027 0.564456
0.445378 0.596027 0.564456
0.488958 0.596027 0.564456
0.520172 0.596027 0.564456
0.544508 0.596027 0.564456
0.564456 0.596027 0.564456
0.581360 0.596027 0.564456
0.596027 0.596027 0.564456
0.092864 0.092864 0.581360
0.372618 0.092864 0.581360
0.445378 0.092864 0.581360
0.488958 0.092864 0.581360
0.520172 0.092864 0.581360
0.544508 0.092864 0.581360
0.564456 0.092864 0.581360
0.581360 0.092864 0.581360
0.596027 0.092864 0.581360
0.092864 0.372618 0.581360
0.372618 0.372618 0.581360
0.445378 0.372618 0.581360
0.488958 0.372618 0.581360
0.520172 0.372618 0.581360
0.544508 0.372618 0.581360
0.564456 0.372618 0.581360
0.581360 0.372618 0.581360
0.596027 0.372618 0.581360
0.092864 0.445378 0.581360
0.372618 0.445378 0.581360
0.445378 0.445378 0.581360
0.488958 0.445378 0.581360
0.520172 0.445378 0.581360
0.544508 0.445378 0.581360
0.564456 0.445378 0.581360
0.581360 0.445378 0.581360
0.596027 0.445378 0.581360
0.092864 0.488958 0.581360
0.372618 0.488958 0.581360
0.445378 0.488958 0.581360
0.488958 0.488958 0.581360
0.520172 0.488958 0.581360
0.544508 0.488958 0.581360
0.564456 0.488958 0.581360
0.581360 0.488958 0.581360
0.596027 0.488958 0.581360
0.092864 0.520172 0.581360
0.372618 0.520172 0.581360
0.445378 0.520172 0.581360
0.488958 0.520172 0.581360
0.520172 0.520172 0.581360
0.544508 0.520172 0.581360
0.564456 0.520172 0.581360
0.581360 0.520172 0.581360
0.596027 0.520172 0.581360
0.092864 0.544508 0.581360
0.372618 0.544508 0.581360
0.445378 0.544508 0.581360
0.488958 0.544508 0.581360
0.520172 0.544508 0.581360
0.544508 0.544508 0.581360
0.564456 0.544508 0.581360
0.581360 0.544508 0.581360
0.596027 0.544508 0.581360
0.092864 0.564456 0.581360
0.372618 0.564456 0.581360
0.445378 0.564456 0.581360
0.488958 0.564456 0.581360
0.520172 0.564456 0.581360
0.544508 0.564456 0.581360
0.564456 0.564456 0.581360
0.581360 0.564456 0.581360
0.596027 0.564456 0.581360
0.092864 0.581360 0.581360
0.372618 0.581360 0.581360
0.445378 0.581360 0.581360
0.488958 0.581360 0.581360
0.520172 0.581360 0.581360
0.544508 0.581360 0.581360
0.564456 0.581360 0.581360
0.581360 0.581360 0.581360
0.596027 0.581360 0.581360
0.092864 0.596027 0.581360
0.372618 0.596027 0.581360
0.445378 0.596027 0.581360
0.488958 0.596027 0.581360
0.520172 0.596027 0.581360
0.544508 0.596027 0.581360
0.564456 0.596027 0.581360
0.581360 0.596027 0.581360
0.596027 0.596027 0.581360
0.092864 0.092864 0.596027
0.372618 0.092864 0.596027
0.445378 0.092864 0.596027
0.488958 0.092864 0.596027
0.520172 0.092864 0.596027
0.544508 0.092864 0.596027
0.564456 0.092864 0.596027
0.581360 0.092864 0.596027
0.596027 0.092864 0.596027
0.092864 0.372618 0.596027
0.372618 0.372618 0.596027
0.445378 0.372618 0.596027
0.488958 0.372618 0.596027
0.520172 0.372618 0.596027
0.544508 0.372618 0.596027
0.564456 0.372618 0.596027
0.581360 0.372618 0.596027
0.596027 0.372618 0.596027
0.092864 0.445378 0.596027
0.372618 0.445378 0.596027
0.445378 0.445378 0.596027
0.488958 0.445378 0.596027
0.520172 0.445378 0.596027
0.544508 0.445378 0.596027
0.564456 0.445378 0.596027
0.581360 0.445378 0.596027
0.596027 0.445378 0.596027
0.092864 0.488958 0.596027
0.372618 0.488958 0.596027
0.445378 0.488958 0.596027
0.488958 0.488958 0.596027
0.520172 0.488958 0.596027
0.544508 0.488958 0.596027
0.564456 0.488958 0.596027
0.581360 0.488958 0.596027
0.596027 0.488958 0.596027
0.092864 0.520172 0.596027
0.372618 0.520172 0.596027
0.445378 0.520172 0.596027
0.488958 0.520172 0.596027
0.520172 0.520172 0.596027
0.544508 0.520172 0.596027
0.564456 0.520172 0.596027
0.581360 0.520172 0.596027
0.596027 0.520172 0.596027
0.092864 0.544508 0.596027
0.372618 0.544508 0.596027
0.445378 0.544508 0.596027
0.488958 0.544508 0.596027
0.520172 0.544508 0.596027
0.544508 0.544508 0.596027
0.564456 0.544508 0.596027
0.581360 0.544508 0.596027
0.596027 0.544508 0.596027
0.092864 0.564456 0.596027
0.372618 0.564456 0.596027
0.445378 0.564456 0.596027
0.488958 0.564456 0.596027
0.520172 0.564456 0.596027
0.544508 0.564456 0.596027
0.564456 0.564456 0.596027
0.581360 0.564456 0.596027
0.596027 0.564456 0.596027
0.092864 0.581360 0.596027
0.372618 0.581360 0.596027
0.445378 0.581360 0.596027
0.488958 0.581360 0.596027
0.520172 0.581360 0.596027
0.544508 0.581360 0.596027
0.564456 0.581360 0.596027
0.581360 0.581360 0.596027
0.596027 0.581360 0.596027
0.092864 0.596027 0.596027
0.372618 0.596027 0.596027
0.445378 0.596027 0.596027
0.488958 0.596027 0.596027
0.520172 0.596027 0.596027
0.544508 0.596027 0.596027
0.564456 0.596027 0.596027
0.581360 0.596027 0.596027
0.596027 0.596027 0.596027
