src/assets/luts/slog3-base.cube
TITLE "S-Log3 Base"
DOMAIN_MIN 0.0 0.0 0.0
DOMAIN_MAX 1.0 1.0 1.0
LUT_3D_SIZE 33
0.092864 0.092864 0.092864
0.240996 0.092864 0.092864
0.303601 0.092864 0.092864
0.343389 0.092864 0.092864
0.372618 0.092864 0.092864
0.395733 0.092864 0.092864
0.414855 0.092864 0.092864
0.431162 0.092864 0.092864
0.445378 0.092864 0.092864
0.457978 0.092864 0.092864
0.469293 0.092864 0.092864
0.479560 0.092864 0.092864
0.488958 0.092864 0.092864
0.497622 0.092864 0.092864
0.505658 0.092864 0.092864
0.513152 0.092864 0.092864
0.520172 0.092864 0.092864
0.526774 0.092864 0.092864
0.533005 0.092864 0.092864
0.538905 0.092864 0.092864
0.544508 0.092864 0.092864
0.549841 0.092864 0.092864
0.554929 0.092864 0.092864
0.559795 0.092864 0.092864
0.564456 0.092864 0.092864
0.568930 0.092864 0.092864
0.573230 0.092864 0.092864
0.577369 0.092864 0.092864
0.581360 0.092864 0.092864
0.585213 0.092864 0.092864
0.588936 0.092864 0.092864
0.592538 0.092864 0.092864
0.596027 0.092864 0.092864
0.092864 0.240996 0.092864
0.240996 0.240996 0.092864
0.303601 0.240996 0.092864
0.343389 0.240996 0.092864
0.372618 0.240996 0.092864
0.395733 0.240996 0.092864
0.414855 0.240996 0.092864
0.431162 0.240996 0.092864
0.445378 0.240996 0.092864
0.457978 0.240996 0.092864
0.469293 0.240996 0.092864
0.479560 0.240996 0.092864
0.488958 0.240996 0.092864
0.497622 0.240996 0.092864
0.505658 0.240996 0.092864
0.513152 0.240996 0.092864
0.520172 0.240996 0.092864
0.526774 0.240996 0.092864
0.533005 0.240996 0.092864
0.538905 0.240996 0.092864
0.544508 0.240996 0.092864
0.549841 0.240996 0.092864
0.554929 0.240996 0.092864
0.559795 0.240996 0.092864
0.564456 0.240996 0.092864
0.568930 0.240996 0.092864
0.573230 0.240996 0.092864
0.577369 0.240996 0.092864
0.581360 0.240996 0.092864
0.585213 0.240996 0.092864
0.588936 0.240996 0.092864
0.592538 0.240996 0.092864
0.596027 0.240996 0.092864
0.092864 0.303601 0.092864
0.240996 0.303601 0.092864
0.303601 0.303601 0.092864
0.343389 0.303601 0.092864
0.372618 0.303601 0.092864
0.395733 0.303601 0.092864
0.414855 0.303601 0.092864
0.431162 0.303601 0.092864
0.445378 0.303601 0.092864
0.457978 0.303601 0.092864
0.469293 0.303601 0.092864
0.479560 0.303601 0.092864
0.488958 0.303601 0.092864
0.497622 0.303601 0.092864
0.505658 0.303601 0.092864
0.513152 0.303601 0.092864
0.520172 0.303601 0.092864
0.526774 0.303601 0.092864
0.533005 0.303601 0.092864
0.538905 0.303601 0.092864
0.544508 0.303601 0.092864
0.549841 0.303601 0.092864
0.554929 0.303601 0.092864
0.559795 0.303601 0.092864
0.564456 0.303601 0.092864
0.568930 0.303601 0.092864
0.573230 0.303601 0.092864
0.577369 0.303601 0.092864
0.581360 0.303601 0.092864
0.585213 0.303601 0.092864
0.588936 0.303601 0.092864
0.592538 0.303601 0.092864
0.596027 0.303601 0.092864
0.092864 0.343389 0.092864
0.240996 0.343389 0.092864
0.303601 0.343389 0.092864
0.343389 0.343389 0.092864
0.372618 0.343389 0.092864
0.395733 0.343389 0.092864
0.414855 0.343389 0.092864
0.431162 0.343389 0.092864
0.445378 0.343389 0.092864
0.457978 0.343389 0.092864
0.469293 0.343389 0.092864
0.479560 0.343389 0.092864
0.488958 0.343389 0.092864
0.497622 0.343389 0.092864
0.505658 0.343389 0.092864
0.513152 0.343389 0.092864
0.520172 0.343389 0.092864
0.526774 0.343389 0.092864
0.533005 0.343389 0.092864
0.538905 0.343389 0.092864
0.544508 0.343389 0.092864
0.549841 0.343389 0.092864
0.554929 0.343389 0.092864
0.559795 0.343389 0.092864
0.564456 0.343389 0.092864
0.568930 0.343389 0.092864
0.573230 0.343389 0.092864
0.577369 0.343389 0.092864
0.581360 0.343389 0.092864
0.585213 0.343389 0.092864
0.588936 0.343389 0.092864
0.592538 0.343389 0.092864
0.596027 0.343389 0.092864
0.092864 0.372618 0.092864
0.240996 0.372618 0.092864
0.303601 0.372618 0.092864
0.343389 0.372618 0.092864
0.372618 0.372618 0.092864
0.395733 0.372618 0.092864
0.414855 0.372618 0.092864
0.431162 0.372618 0.092864
0.445378 0.372618 0.092864
0.457978 0.372618 0.092864
0.469293 0.372618 0.092864
0.479560 0.372618 0.092864
0.488958 0.372618 0.092864
0.497622 0.372618 0.092864
0.505658 0.372618 0.092864
0.513152 0.372618 0.092864
0.520172 0.372618 0.092864
0.526774 0.372618 0.092864
0.533005 0.372618 0.092864
0.538905 0.372618 0.092864
0.544508 0.372618 0.092864
0.549841 0.372618 0.092864
0.554929 0.372618 0.092864
0.559795 0.372618 0.092864
0.564456 0.372618 0.092864
0.568930 0.372618 0.092864
0.573230 0.372618 0.092864
0.577369 0.372618 0.092864
0.581360 0.372618 0.092864
0.585213 0.372618 0.092864
0.588936 0.372618 0.092864
0.592538 0.372618 0.092864
0.596027 0.372618 0.092864
0.092864 0.395733 0.092864
0.240996 0.395733 0.092864
0.303601 0.395733 0.092864
0.343389 0.395733 0.092864
0.372618 0.395733 0.092864
0.395733 0.395733 0.092864
0.414855 0.395733 0.092864
0.431162 0.395733 0.092864
0.445378 0.395733 0.092864
0.457978 0.395733 0.092864
0.469293 0.395733 0.092864
0.479560 0.395733 0.092864
0.488958 0.395733 0.092864
0.497622 0.395733 0.092864
0.505658 0.395733 0.092864
0.513152 0.395733 0.092864
0.520172 0.395733 0.092864
0.526774 0.395733 0.092864
0.533005 0.395733 0.092864
0.538905 0.395733 0.092864
0.544508 0.395733 0.092864
0.549841 0.395733 0.092864
0.554929 0.395733 0.092864
0.559795 0.395733 0.092864
0.564456 0.395733 0.092864
0.568930 0.395733 0.092864
0.573230 0.395733 0.092864
0.577369 0.395733 0.092864
0.581360 0.395733 0.092864
0.585213 0.395733 0.092864
0.588936 0.395733 0.092864
0.592538 0.395733 0.092864
0.596027 0.395733 0.092864
0.092864 0.414855 0.092864
0.240996 0.414855 0.092864
0.303601 0.414855 0.092864
0.343389 0.414855 0.092864
0.372618 0.414855 0.092864
0.395733 0.414855 0.092864
0.414855 0.414855 0.092864
0.431162 0.414855 0.092864
0.445378 0.414855 0.092864
0.457978 0.414855 0.092864
0.469293 0.414855 0.092864
0.479560 0.414855 0.092864
0.488958 0.414855 0.092864
0.497622 0.414855 0.092864
0.505658 0.414855 0.092864
0.513152 0.414855 0.092864
0.520172 0.414855 0.092864
0.526774 0.414855 0.092864
0.533005 0.414855 0.092864
0.538905 0.414855 0.092864
0.544508 0.414855 0.092864
0.549841 0.414855 0.092864
0.554929 0.414855 0.092864
0.559795 0.414855 0.092864
0.564456 0.414855 0.092864
0.568930 0.414855 0.092864
0.573230 0.414855 0.092864
0.577369 0.414855 0.092864
0.581360 0.414855 0.092864
0.585213 0.414855 0.092864
0.588936 0.414855 0.092864
0.592538 0.414855 0.092864
0.596027 0.414855 0.092864
0.092864 0.431162 0.092864
0.240996 0.431162 0.092864
0.303601 0.431162 0.092864
0.343389 0.431162 0.092864
0.372618 0.431162 0.092864
0.395733 0.431162 0.092864
0.414855 0.431162 0.092864
0.431162 0.431162 0.092864
0.445378 0.431162 0.092864
0.457978 0.431162 0.092864
0.469293 0.431162 0.092864
0.479560 0.431162 0.092864
0.488958 0.431162 0.092864
0.497622 0.431162 0.092864
0.505658 0.431162 0.092864
0.513152 0.431162 0.092864
0.520172 0.431162 0.092864
0.526774 0.431162 0.092864
0.533005 0.431162 0.092864
0.538905 0.431162 0.092864
0.544508 0.431162 0.092864
0.549841 0.431162 0.092864
0.554929 0.431162 0.092864
0.559795 0.431162 0.092864
0.564456 0.431162 0.092864
0.568930 0.431162 0.092864
0.573230 0.431162 0.092864
0.577369 0.431162 0.092864
0.581360 0.431162 0.092864
0.585213 0.431162 0.092864
0.588936 0.431162 0.092864
0.592538 0.431162 0.092864
0.596027 0.431162 0.092864
0.092864 0.445378 0.092864
0.240996 0.445378 0.092864
0.303601 0.445378 0.092864
0.343389 0.445378 0.092864
0.372618 0.445378 0.092864
0.395733 0.445378 0.092864
0.414855 0.445378 0.092864
0.431162 0.445378 0.092864
0.445378 0.445378 0.092864
0.457978 0.445378 0.092864
0.469293 0.445378 0.092864
0.479560 0.445378 0.092864
0.488958 0.445378 0.092864
0.497622 0.445378 0.092864
0.505658 0.445378 0.092864
0.513152 0.445378 0.092864
0.520172 0.445378 0.092864
0.526774 0.445378 0.092864
0.533005 0.445378 0.092864
0.538905 0.445378 0.092864
0.544508 0.445378 0.092864
0.549841 0.445378 0.092864
0.554929 0.445378 0.092864
0.559795 0.445378 0.092864
0.564456 0.445378 0.092864
0.568930 0.445378 0.092864
0.573230 0.445378 0.092864
0.577369 0.445378 0.092864
0.581360 0.445378 0.092864
0.585213 0.445378 0.092864
0.588936 0.445378 0.092864
0.592538 0.445378 0.092864
0.596027 0.445378 0.092864
0.092864 0.457978 0.092864
0.240996 0.457978 0.092864
0.303601 0.457978 0.092864
0.343389 0.457978 0.092864
0.372618 0.457978 0.092864
0.395733 0.457978 0.092864
0.414855 0.457978 0.092864
0.431162 0.457978 0.092864
0.445378 0.457978 0.092864
0.457978 0.457978 0.092864
0.469293 0.457978 0.092864
0.479560 0.457978 0.092864
0.488958 0.457978 0.092864
0.497622 0.457978 0.092864
0.505658 0.457978 0.092864
0.513152 0.457978 0.092864
0.520172 0.457978 0.092864
0.526774 0.457978 0.092864
0.533005 0.457978 0.092864
0.538905 0.457978 0.092864
0.544508 0.457978 0.092864
0.549841 0.457978 0.092864
0.554929 0.457978 0.092864
0.559795 0.457978 0.092864
0.564456 0.457978 0.092864
0.568930 0.457978 0.092864
0.573230 0.457978 0.092864
0.577369 0.457978 0.092864
0.581360 0.457978 0.092864
0.585213 0.457978 0.092864
0.588936 0.457978 0.092864
0.592538 0.457978 0.092864
0.596027 0.457978 0.092864
0.092864 0.469293 0.092864
0.240996 0.469293 0.092864
0.303601 0.469293 0.092864
0.343389 0.469293 0.092864
0.372618 0.469293 0.092864
0.395733 0.469293 0.092864
0.414855 0.469293 0.092864
0.431162 0.469293 0.092864
0.445378 0.469293 0.092864
0.457978 0.469293 0.092864
0.469293 0.469293 0.092864
0.479560 0.469293 0.092864
0.488958 0.469293 0.092864
0.497622 0.469293 0.092864
0.505658 0.469293 0.092864
0.513152 0.469293 0.092864
0.520172 0.469293 0.092864
0.526774 0.469293 0.092864
0.533005 0.469293 0.092864
0.538905 0.469293 0.092864
0.544508 0.469293 0.092864
0.549841 0.469293 0.092864
0.554929 0.469293 0.092864
0.559795 0.469293 0.092864
0.564456 0.469293 0.092864
0.568930 0.469293 0.092864
0.573230 0.469293 0.092864
0.577369 0.469293 0.092864
0.581360 0.469293 0.092864
0.585213 0.469293 0.092864
0.588936 0.469293 0.092864
0.592538 0.469293 0.092864
0.596027 0.469293 0.092864
0.092864 0.479560 0.092864
0.240996 0.479560 0.092864
0.303601 0.479560 0.092864
0.343389 0.479560 0.092864
0.372618 0.479560 0.092864
0.395733 0.479560 0.092864
0.414855 0.479560 0.092864
0.431162 0.479560 0.092864
0.445378 0.479560 0.092864
0.457978 0.479560 0.092864
0.469293 0.479560 0.092864
0.479560 0.479560 0.092864
0.488958 0.479560 0.092864
0.497622 0.479560 0.092864
0.505658 0.479560 0.092864
0.513152 0.479560 0.092864
0.520172 0.479560 0.092864
0.526774 0.479560 0.092864
0.533005 0.479560 0.092864
0.538905 0.479560 0.092864
0.544508 0.479560 0.092864
0.549841 0.479560 0.092864
0.554929 0.479560 0.092864
0.559795 0.479560 0.092864
0.564456 0.479560 0.092864
0.568930 0.479560 0.092864
0.573230 0.479560 0.092864
0.577369 0.479560 0.092864
0.581360 0.479560 0.092864
0.585213 0.479560 0.092864
0.588936 0.479560 0.092864
0.592538 0.479560 0.092864
0.596027 0.479560 0.092864
0.092864 0.488958 0.092864
0.240996 0.488958 0.092864
0.303601 0.488958 0.092864
0.343389 0.488958 0.092864
0.372618 0.488958 0.092864
0.395733 0.488958 0.092864
0.414855 0.488958 0.092864
0.431162 0.488958 0.092864
0.445378 0.488958 0.092864
0.457978 0.488958 0.092864
0.469293 0.488958 0.092864
0.479560 0.488958 0.092864
0.488958 0.488958 0.092864
0.497622 0.488958 0.092864
0.505658 0.488958 0.092864
0.513152 0.488958 0.092864
0.520172 0.488958 0.092864
0.526774 0.488958 0.092864
0.533005 0.488958 0.092864
0.538905 0.488958 0.092864
0.544508 0.488958 0.092864
0.549841 0.488958 0.092864
0.554929 0.488958 0.092864
0.559795 0.488958 0.092864
0.564456 0.488958 0.092864
0.568930 0.488958 0.092864
0.573230 0.488958 0.092864
0.577369 0.488958 0.092864
0.581360 0.488958 0.092864
0.585213 0.488958 0.092864
0.588936 0.488958 0.092864
0.592538 0.488958 0.092864
0.596027 0.488958 0.092864
0.092864 0.497622 0.092864
0.240996 0.497622 0.092864
0.303601 0.497622 0.092864
0.343389 0.497622 0.092864
0.372618 0.497622 0.092864
0.395733 0.497622 0.092864
0.414855 0.497622 0.092864
0.431162 0.497622 0.092864
0.445378 0.497622 0.092864
0.457978 0.497622 0.092864
0.469293 0.497622 0.092864
0.479560 0.497622 0.092864
0.488958 0.497622 0.092864
0.497622 0.497622 0.092864
0.505658 0.497622 0.092864
0.513152 0.497622 0.092864
0.520172 0.497622 0.092864
0.526774 0.497622 0.092864
0.533005 0.497622 0.092864
0.538905 0.497622 0.092864
0.544508 0.497622 0.092864
0.549841 0.497622 0.092864
0.554929 0.497622 0.092864
0.559795 0.497622 0.092864
0.564456 0.497622 0.092864
0.568930 0.497622 0.092864
0.573230 0.497622 0.092864
0.577369 0.497622 0.092864
0.581360 0.497622 0.092864
0.585213 0.497622 0.092864
0.588936 0.497622 0.092864
0.592538 0.497622 0.092864
0.596027 0.497622 0.092864
0.092864 0.505658 0.092864
0.240996 0.505658 0.092864
0.303601 0.505658 0.092864
0.343389 0.505658 0.092864
0.372618 0.505658 0.092864
0.395733 0.505658 0.092864
0.414855 0.505658 0.092864
0.431162 0.505658 0.092864
0.445378 0.505658 0.092864
0.457978 0.505658 0.092864
0.469293 0.505658 0.092864
0.479560 0.505658 0.092864
0.488958 0.505658 0.092864
0.497622 0.505658 0.092864
0.505658 0.505658 0.092864
0.513152 0.505658 0.092864
0.520172 0.505658 0.092864
0.526774 0.505658 0.092864
0.533005 0.505658 0.092864
0.538905 0.505658 0.092864
0.544508 0.505658 0.092864
0.549841 0.505658 0.092864
0.554929 0.505658 0.092864
0.559795 0.505658 0.092864
0.564456 0.505658 0.092864
0.568930 0.505658 0.092864
0.573230 0.505658 0.092864
0.577369 0.505658 0.092864
0.581360 0.505658 0.092864
0.585213 0.505658 0.092864
0.588936 0.505658 0.092864
0.592538 0.505658 0.092864
0.596027 0.505658 0.092864
0.092864 0.513152 0.092864
0.240996 0.513152 0.092864
0.303601 0.513152 0.092864
0.343389 0.513152 0.092864
0.372618 0.513152 0.092864
0.395733 0.513152 0.092864
0.414855 0.513152 0.092864
0.431162 0.513152 0.092864
0.445378 0.513152 0.092864
0.457978 0.513152 0.092864
0.469293 0.513152 0.092864
0.479560 0.513152 0.092864
0.488958 0.513152 0.092864
0.497622 0.513152 0.092864
0.505658 0.513152 0.092864
0.513152 0.513152 0.092864
0.520172 0.513152 0.092864
0.526774 0.513152 0.092864
0.533005 0.513152 0.092864
0.538905 0.513152 0.092864
0.544508 0.513152 0.092864
0.549841 0.513152 0.092864
0.554929 0.513152 0.092864
0.559795 0.513152 0.092864
0.564456 0.513152 0.092864
0.568930 0.513152 0.092864
0.573230 0.513152 0.092864
0.577369 0.513152 0.092864
0.581360 0.513152 0.092864
0.585213 0.513152 0.092864
0.588936 0.513152 0.092864
0.592538 0.513152 0.092864
0.596027 0.513152 0.092864
0.092864 0.520172 0.092864
0.240996 0.520172 0.092864
0.303601 0.520172 0.092864
0.343389 0.520172 0.092864
0.372618 0.520172 0.092864
0.395733 0.520172 0.092864
0.414855 0.520172 0.092864
0.431162 0.520172 0.092864
0.445378 0.520172 0.092864
0.457978 0.520172 0.092864
0.469293 0.520172 0.092864
0.479560 0.520172 0.092864
0.488958 0.520172 0.092864
0.497622 0.520172 0.092864
0.505658 0.520172 0.092864
0.513152 0.520172 0.092864
0.520172 0.520172 0.092864
0.526774 0.520172 0.092864
0.533005 0.520172 0.092864
0.538905 0.520172 0.092864
0.544508 0.520172 0.092864
0.549841 0.520172 0.092864
0.554929 0.520172 0.092864
0.559795 0.520172 0.092864
0.564456 0.520172 0.092864
0.568930 0.520172 0.092864
0.573230 0.520172 0.092864
0.577369 0.520172 0.092864
0.581360 0.520172 0.092864
0.585213 0.520172 0.092864
0.588936 0.520172 0.092864
0.592538 0.520172 0.092864
0.596027 0.520172 0.092864
0.092864 0.526774 0.092864
0.240996 0.526774 0.092864
0.303601 0.526774 0.092864
0.343389 0.526774 0.092864
0.372618 0.526774 0.092864
0.395733 0.526774 0.092864
0.414855 0.526774 0.092864
0.431162 0.526774 0.092864
0.445378 0.526774 0.092864
0.457978 0.526774 0.092864
0.469293 0.526774 0.092864
0.479560 0.526774 0.092864
0.488958 0.526774 0.092864
0.497622 0.526774 0.092864
0.505658 0.526774 0.092864
0.513152 0.526774 0.092864
0.520172 0.526774 0.092864
0.526774 0.526774 0.092864
0.533005 0.526774 0.092864
0.538905 0.526774 0.092864
0.544508 0.526774 0.092864
0.549841 0.526774 0.092864
0.554929 0.526774 0.092864
0.559795 0.526774 0.092864
0.564456 0.526774 0.092864
0.568930 0.526774 0.092864
0.573230 0.526774 0.092864
0.577369 0.526774 0.092864
0.581360 0.526774 0.092864
0.585213 0.526774 0.092864
0.588936 0.526774 0.092864
0.592538 0.526774 0.092864
0.596027 0.526774 0.092864
0.092864 0.533005 0.092864
0.240996 0.533005 0.092864
0.303601 0.533005 0.092864
0.343389 0.533005 0.092864
0.372618 0.533005 0.092864
0.395733 0.533005 0.092864
0.414855 0.533005 0.092864
0.431162 0.533005 0.092864
0.445378 0.533005 0.092864
0.457978 0.533005 0.092864
0.469293 0.533005 0.092864
0.479560 0.533005 0.092864
0.488958 0.533005 0.092864
0.497622 0.533005 0.092864
0.505658 0.533005 0.092864
0.513152 0.533005 0.092864
0.520172 0.533005 0.092864
0.526774 0.533005 0.092864
0.533005 0.533005 0.092864
0.538905 0.533005 0.092864
0.544508 0.533005 0.092864
0.549841 0.533005 0.092864
0.554929 0.533005 0.092864
0.559795 0.533005 0.092864
0.564456 0.533005 0.092864
0.568930 0.533005 0.092864
0.573230 0.533005 0.092864
0.577369 0.533005 0.092864
0.581360 0.533005 0.092864
0.585213 0.533005 0.092864
0.588936 0.533005 0.092864
0.592538 0.533005 0.092864
0.596027 0.533005 0.092864
0.092864 0.538905 0.092864
0.240996 0.538905 0.092864
0.303601 0.538905 0.092864
0.343389 0.538905 0.092864
0.372618 0.538905 0.092864
0.395733 0.538905 0.092864
0.414855 0.538905 0.092864
0.431162 0.538905 0.092864
0.445378 0.538905 0.092864
0.457978 0.538905 0.092864
0.469293 0.538905 0.092864
0.479560 0.538905 0.092864
0.488958 0.538905 0.092864
0.497622 0.538905 0.092864
0.505658 0.538905 0.092864
0.513152 0.538905 0.092864
0.520172 0.538905 0.092864
0.526774 0.538905 0.092864
0.533005 0.538905 0.092864
0.538905 0.538905 0.092864
0.544508 0.538905 0.092864
0.549841 0.538905 0.092864
0.554929 0.538905 0.092864
0.559795 0.538905 0.092864
0.564456 0.538905 0.092864
0.568930 0.538905 0.092864
0.573230 0.538905 0.092864
0.577369 0.538905 0.092864
0.581360 0.538905 0.092864
0.585213 0.538905 0.092864
0.588936 0.538905 0.092864
0.592538 0.538905 0.092864
0.596027 0.538905 0.092864
0.092864 0.544508 0.092864
0.240996 0.544508 0.092864
0.303601 0.544508 0.092864
0.343389 0.544508 0.092864
0.372618 0.544508 0.092864
0.395733 0.544508 0.092864
0.414855 0.544508 0.092864
0.431162 0.544508 0.092864
0.445378 0.544508 0.092864
0.457978 0.544508 0.092864
0.469293 0.544508 0.092864
0.479560 0.544508 0.092864
0.488958 0.544508 0.092864
0.497622 0.544508 0.092864
0.505658 0.544508 0.092864
0.513152 0.544508 0.092864
0.520172 0.544508 0.092864
0.526774 0.544508 0.092864
0.533005 0.544508 0.092864
0.538905 0.544508 0.092864
0.544508 0.544508 0.092864
0.549841 0.544508 0.092864
0.554929 0.544508 0.092864
0.559795 0.544508 0.092864
0.564456 0.544508 0.092864
0.568930 0.544508 0.092864
0.573230 0.544508 0.092864
0.577369 0.544508 0.092864
0.581360 0.544508 0.092864
0.585213 0.544508 0.092864
0.588936 0.544508 0.092864
0.592538 0.544508 0.092864
0.596027 0.544508 0.092864
0.092864 0.549841 0.092864
0.240996 0.549841 0.092864
0.303601 0.549841 0.092864
0.343389 0.549841 0.092864
0.372618 0.549841 0.092864
0.395733 0.549841 0.092864
0.414855 0.549841 0.092864
0.431162 0.549841 0.092864
0.445378 0.549841 0.092864
0.457978 0.549841 0.092864
0.469293 0.549841 0.092864
0.479560 0.549841 0.092864
0.488958 0.549841 0.092864
0.497622 0.549841 0.092864
0.505658 0.549841 0.092864
0.513152 0.549841 0.092864
0.520172 0.549841 0.092864
0.526774 0.549841 0.092864
0.533005 0.549841 0.092864
0.538905 0.549841 0.092864
0.544508 0.549841 0.092864
0.549841 0.549841 0.092864
0.554929 0.549841 0.092864
0.559795 0.549841 0.092864
0.564456 0.549841 0.092864
0.568930 0.549841 0.092864
0.573230 0.549841 0.092864
0.577369 0.549841 0.092864
0.581360 0.549841 0.092864
0.585213 0.549841 0.092864
0.588936 0.549841 0.092864
0.592538 0.549841 0.092864
0.596027 0.549841 0.092864
0.092864 0.554929 0.092864
0.240996 0.554929 0.092864
0.303601 0.554929 0.092864
0.343389 0.554929 0.092864
0.372618 0.554929 0.092864
0.395733 0.554929 0.092864
0.414855 0.554929 0.092864
0.431162 0.554929 0.092864
0.445378 0.554929 0.092864
0.457978 0.554929 0.092864
0.469293 0.554929 0.092864
0.479560 0.554929 0.092864
0.488958 0.554929 0.092864
0.497622 0.554929 0.092864
0.505658 0.554929 0.092864
0.513152 0.554929 0.092864
0.520172 0.554929 0.092864
0.526774 0.554929 0.092864
0.533005 0.554929 0.092864
0.538905 0.554929 0.092864
0.544508 0.554929 0.092864
0.549841 0.554929 0.092864
0.554929 0.554929 0.092864
0.559795 0.554929 0.092864
0.564456 0.554929 0.092864
0.568930 0.554929 0.092864
0.573230 0.554929 0.092864
0.577369 0.554929 0.092864
0.581360 0.554929 0.092864
0.585213 0.554929 0.092864
0.588936 0.554929 0.092864
0.592538 0.554929 0.092864
0.596027 0.554929 0.092864
0.092864 0.559795 0.092864
0.240996 0.559795 0.092864
0.303601 0.559795 0.092864
0.343389 0.559795 0.092864
0.372618 0.559795 0.092864
0.395733 0.559795 0.092864
0.414855 0.559795 0.092864
0.431162 0.559795 0.092864
0.445378 0.559795 0.092864
0.457978 0.559795 0.092864
0.469293 0.559795 0.092864
0.479560 0.559795 0.092864
0.488958 0.559795 0.092864
0.497622 0.559795 0.092864
0.505658 0.559795 0.092864
0.513152 0.559795 0.092864
0.520172 0.559795 0.092864
0.526774 0.559795 0.092864
0.533005 0.559795 0.092864
0.538905 0.559795 0.092864
0.544508 0.559795 0.092864
0.549841 0.559795 0.092864
0.554929 0.559795 0.092864
0.559795 0.559795 0.092864
0.564456 0.559795 0.092864
0.568930 0.559795 0.092864
0.573230 0.559795 0.092864
0.577369 0.559795 0.092864
0.581360 0.559795 0.092864
0.585213 0.559795 0.092864
0.588936 0.559795 0.092864
0.592538 0.559795 0.092864
0.596027 0.559795 0.092864
0.092864 0.564456 0.092864
0.240996 0.564456 0.092864
0.303601 0.564456 0.092864
0.343389 0.564456 0.092864
0.372618 0.564456 0.092864
0.395733 0.564456 0.092864
0.414855 0.564456 0.092864
0.431162 0.564456 0.092864
0.445378 0.564456 0.092864
0.457978 0.564456 0.092864
0.469293 0.564456 0.092864
0.479560 0.564456 0.092864
0.488958 0.564456 0.092864
0.497622 0.564456 0.092864
0.505658 0.564456 0.092864
0.513152 0.564456 0.092864
0.520172 0.564456 0.092864
0.526774 0.564456 0.092864
0.533005 0.564456 0.092864
0.538905 0.564456 0.092864
0.544508 0.564456 0.092864
0.549841 0.564456 0.092864
0.554929 0.564456 0.092864
0.559795 0.564456 0.092864
0.564456 0.564456 0.092864
0.568930 0.564456 0.092864
0.573230 0.564456 0.092864
0.577369 0.564456 0.092864
0.581360 0.564456 0.092864
0.585213 0.564456 0.092864
0.588936 0.564456 0.092864
0.592538 0.564456 0.092864
0.596027 0.564456 0.092864
0.092864 0.568930 0.092864
0.240996 0.568930 0.092864
0.303601 0.568930 0.092864
0.343389 0.568930 0.092864
0.372618 0.568930 0.092864
0.395733 0.568930 0.092864
0.414855 0.568930 0.092864
0.431162 0.568930 0.092864
0.445378 0.568930 0.092864
0.457978 0.568930 0.092864
0.469293 0.568930 0.092864
0.479560 0.568930 0.092864
0.488958 0.568930 0.092864
0.497622 0.568930 0.092864
0.505658 0.568930 0.092864
0.513152 0.568930 0.092864
0.520172 0.568930 0.092864
0.526774 0.568930 0.092864
0.533005 0.568930 0.092864
0.538905 0.568930 0.092864
0.544508 0.568930 0.092864
0.549841 0.568930 0.092864
0.554929 0.568930 0.092864
0.559795 0.568930 0.092864
0.564456 0.568930 0.092864
0.568930 0.568930 0.092864
0.573230 0.568930 0.092864
0.577369 0.568930 0.092864
0.581360 0.568930 0.092864
0.585213 0.568930 0.092864
0.588936 0.568930 0.092864
0.592538 0.568930 0.092864
0.596027 0.568930 0.092864
0.092864 0.573230 0.092864
0.240996 0.573230 0.092864
0.303601 0.573230 0.092864
0.343389 0.573230 0.092864
0.372618 0.573230 0.092864
0.395733 0.573230 0.092864
0.414855 0.573230 0.092864
0.431162 0.573230 0.092864
0.445378 0.573230 0.092864
0.457978 0.573230 0.092864
0.469293 0.573230 0.092864
0.479560 0.573230 0.092864
0.488958 0.573230 0.092864
0.497622 0.573230 0.092864
0.505658 0.573230 0.092864
0.513152 0.573230 0.092864
0.520172 0.573230 0.092864
0.526774 0.573230 0.092864
0.533005 0.573230 0.092864
0.538905 0.573230 0.092864
0.544508 0.573230 0.092864
0.549841 0.573230 0.092864
0.554929 0.573230 0.092864
0.559795 0.573230 0.092864
0.564456 0.573230 0.092864
0.568930 0.573230 0.092864
0.573230 0.573230 0.092864
